public/assets/icons/condition_stunned.svg

<?xml version="1.0" standalone="no"?>
<!DOCTYPE svg PUBLIC "-//W3C//DTD SVG 1.1//EN" "http://www.w3.org/Graphics/SVG/1.1/DTD/svg11.dtd" >
<svg xmlns="http://www.w3.org/2000/svg" xmlns:xlink="http://www.w3.org/1999/xlink" version="1.1" viewBox="0 -64 1024 1024" width="512" height="512">
  <g transform="matrix(1 0 0 -1 0 960)">
   <path fill="currentColor"
d="M512 789q-71 0 -133 -26q-62 -27 -108.5 -73.5t-72.5 -108.5q-27 -62 -27 -133t27 -133q26 -62 72.5 -108.5t108.5 -73.5q62 -26 133 -26q70 0 133 26q62 27 108.5 73.5t72.5 108.5q27 62 27 133t-27 133q-26 62 -72.5 108.5t-108.5 73.5q-63 26 -133 26zM512 721
q57 0 106 -21q50 -22 87 -59t59 -87q21 -49 21 -106t-21 -106q-22 -50 -59 -87t-87 -59q-49 -21 -106 -21t-106 21q-50 22 -87 59t-59 87q-21 49 -21 106t21 106q22 50 59 87t87 59q49 21 106 21v0zM424 633q-32 -16 -56.5 -40.5t-39.5 -55.5l-1 -1l88 -88l-88 -88
q16 -32 40.5 -56.5t55.5 -39.5l1 -1l88 88l88 -88q32 16 56.5 40.5t39.5 55.5l1 1l-88 88l88 88q-16 32 -40.5 56.5t-55.5 39.5l-1 1l-88 -88l-88 88v0z" />
  </g>

</svg>

<?xml version="1.0" encoding="UTF-8" standalone="no"?>
<svg
   version="1.1"
   viewBox="0 -64 1024 1024"
   width="512"
   height="512"
   id="svg630"
   sodipodi:docname="condition_stunned.svg"
   inkscape:version="1.2.2 (732a01da63, 2022-12-09)"
   xmlns:inkscape="http://www.inkscape.org/namespaces/inkscape"
   xmlns:sodipodi="http://sodipodi.sourceforge.net/DTD/sodipodi-0.dtd"
   xmlns="http://www.w3.org/2000/svg"
   xmlns:svg="http://www.w3.org/2000/svg">
  <defs
     id="defs634" />
  <sodipodi:namedview
     id="namedview632"
     pagecolor="#ffffff"
     bordercolor="#000000"
     borderopacity="0.25"
     inkscape:showpageshadow="2"
     inkscape:pageopacity="0.0"
     inkscape:pagecheckerboard="0"
     inkscape:deskcolor="#d1d1d1"
     showgrid="false"
     inkscape:zoom="1.6191406"
     inkscape:cx="236.23643"
     inkscape:cy="256.30881"
     inkscape:window-width="1920"
     inkscape:window-height="1009"
     inkscape:window-x="-8"
     inkscape:window-y="-8"
     inkscape:window-maximized="1"
     inkscape:current-layer="svg630" />
  <g
     transform="matrix(1,0,0,-1,0,896)"
     id="g628">
    <path
       fill="currentColor"
       d="M 512,789 Q 441,789 379,763 317,736 270.5,689.5 224,643 198,581 171,519 171,448 171,377 198,315 224,253 270.5,206.5 317,160 379,133 q 62,-26 133,-26 70,0 133,26 62,27 108.5,73.5 Q 800,253 826,315 q 27,62 27,133 0,71 -27,133 -26,62 -72.5,108.5 Q 707,736 645,763 582,789 512,789 Z m 0,-68 q 57,0 106,-21 50,-22 87,-59 37,-37 59,-87 21,-49 21,-106 0,-57 -21,-106 -22,-50 -59,-87 -37,-37 -87,-59 -49,-21 -106,-21 -57,0 -106,21 -50,22 -87,59 -37,37 -59,87 -21,49 -21,106 0,57 21,106 22,50 59,87 37,37 87,59 49,21 106,21 z M 424,633 Q 392,617 367.5,592.5 343,568 328,537 l -1,-1 88,-88 -88,-88 Q 343,328 367.5,303.5 392,279 423,264 l 1,-1 88,88 88,-88 q 32,16 56.5,40.5 Q 681,328 696,359 l 1,1 -88,88 88,88 Q 681,568 656.5,592.5 632,617 601,632 l -1,1 -88,-88 -88,88 z"
       id="path626" />
  </g>
</svg>
